desktop/renderer-app/src/assets/image/phone-active.svg

<?xml version="1.0" encoding="UTF-8"?>
<svg width="22px" height="22px" viewBox="0 0 22 22" version="1.1" xmlns="http://www.w3.org/2000/svg" xmlns:xlink="http://www.w3.org/1999/xlink">
    <title>矩形备份 25</title>
    <g id="白板" stroke="none" stroke-width="1" fill="none" fill-rule="evenodd">
        <g id="Flat-规范" transform="translate(-1212.000000, -346.000000)">
            <g id="编组-9备份-6" transform="translate(0.000000, 330.000000)">
                <g id="follow备份" transform="translate(1212.000000, 16.000000)">
                    <rect id="矩形备份-25" fill="#FF6C6C" x="0" y="0" width="22" height="22" rx="11"></rect>
                    <path d="M8.23289035,11.4424221 C8.23148503,11.471437 8.21618273,11.7909382 8.21024918,11.8832123 C8.2029245,12.0303062 8.1872807,12.1767786 8.16340539,12.3218094 C8.0052295,13.2411766 7.39922692,13.6988359 5.99297616,13.8467781 C5.12261842,13.9378713 4.54316067,13.7212718 4.23898828,13.2017028 C4.01132743,12.813713 3.97010489,12.3675248 4.01741713,11.6640824 C4.02085234,11.6188731 4.05208154,11.2167133 4.05770279,11.11145 C4.14654986,9.45827603 7.37190137,7.9530443 11.1857671,8.0011213 C15.0093139,8.0491983 18.0874198,9.6414747 17.9981043,11.317928 L17.9885794,11.5407691 L17.9807721,11.7848653 C17.9517289,12.6451905 17.8478918,13.1303464 17.4862577,13.526096 C17.1246236,13.9218456 16.5701492,14.0699565 15.8015987,13.9695853 C14.1776804,13.7548413 13.7133022,13.1801104 13.7704516,11.9188061 C13.7737307,11.8275442 13.7938735,11.5095612 13.7951227,11.480209 C13.8107373,11.1728536 12.7526921,10.9134065 11.0606942,10.8921514 C9.34902187,10.871571 8.25272089,11.1074014 8.23445181,11.4422534 L8.23289035,11.4424221 Z" id="路径" fill="#FFFFFF" fill-rule="nonzero"></path>
                </g>
            </g>
        </g>
    </g>
</svg>

<svg width="22" height="22" xmlns="http://www.w3.org/2000/svg"><g fill="none" fill-rule="evenodd"><rect fill="#FF6C6C" width="22" height="22" rx="11"/><path d="M8.233 11.442c-.002.03-.017.349-.023.441a3.892 3.892 0 0 1-.047.439c-.158.92-.764 1.377-2.17 1.525-.87.09-1.45-.126-1.754-.645-.228-.388-.269-.834-.222-1.538.004-.045.035-.447.04-.553.09-1.653 3.315-3.158 7.129-3.11 3.823.048 6.901 1.64 6.812 3.317l-.01.223-.007.244c-.03.86-.133 1.345-.495 1.741-.361.396-.916.544-1.684.444-1.624-.215-2.089-.79-2.032-2.051.004-.091.024-.41.025-.439.016-.307-1.042-.567-2.734-.588-1.712-.02-2.808.215-2.827.55h-.001Z" fill="#FFF" fill-rule="nonzero"/></g></svg>
